coffeeroasters/images/icon-australia.svg

<svg width="49" height="44" viewBox="0 0 49 44" fill="none" xmlns="http://www.w3.org/2000/svg">
<path fill-rule="evenodd" clip-rule="evenodd" d="M4.12213 32.8632C4.60545 29.7713 3.25319 26.6019 1.79811 23.6858C1.60829 23.3057 1.41741 22.9298 1.22904 22.559C0.830641 21.7745 0.443482 21.0122 0.101358 20.2785C-0.00147482 20.0562 -0.0271831 19.8028 0.0293751 19.5598L0.949732 15.7027C1.03714 15.3304 1.31479 15.0306 1.67985 14.9168C3.6491 14.2964 9.93735 12.0627 10.5029 8.77955C10.5132 8.71234 10.5492 8.65546 10.5955 8.60893L15.9582 3.41269C16.092 3.28343 16.3079 3.29894 16.4262 3.44371C16.9301 4.07967 18.3337 5.49636 20.4212 4.79835L19.7733 4.14171C19.6448 4.01762 19.65 3.81081 19.7785 3.68672L22.2311 1.36004C22.2876 1.30317 22.3647 1.27215 22.447 1.27215H29.923C30.1904 1.27215 30.3394 1.58754 30.1698 1.79436L27.7686 4.72597C27.6504 4.87591 27.6812 5.09306 27.8406 5.19647C28.3202 5.51021 29.3175 6.16508 30.372 6.85753C31.1944 7.39752 32.0516 7.96036 32.7252 8.40211C33.5068 8.91398 34.5609 8.59342 34.9155 7.72479C35.3115 6.75793 35.6816 5.25335 35.6868 3.01457C35.6868 2.97838 35.692 2.93701 35.7073 2.90082L36.746 0.201878C36.8436 -0.0463005 37.183 -0.0721524 37.3167 0.160515C37.8258 1.04982 38.7358 2.93701 38.7358 5.1396L39.2345 4.77767C39.3734 4.67426 39.5687 4.70529 39.6716 4.83972L40.7616 6.26674C40.8079 6.32879 40.8284 6.41151 40.8233 6.48907C40.7513 7.25946 40.5508 11.5043 44.258 13.2054C44.3248 13.2364 44.3814 13.2881 44.4122 13.3553L48.9369 22.4552C48.9575 22.5018 48.9677 22.5483 48.9677 22.6V26.4313C48.9677 27.0156 48.7209 27.5688 48.2838 27.9566C46.51 29.5387 41.8722 33.9284 41.5894 36.9686C41.574 37.1288 41.4403 37.2529 41.2758 37.2529H33.3011C33.2497 37.2529 33.1983 37.2426 33.152 37.2167C32.6378 36.9376 29.923 33.3597 29.3729 29.8903C29.3317 29.6318 29.0078 29.5335 28.8279 29.73L27.0436 31.7154C26.8791 31.9016 26.6426 32.005 26.3958 32.005C26.1232 32.005 25.8919 31.8085 25.8457 31.5396C25.64 30.3297 24.7248 27.1655 20.8891 27.1655C18.8324 27.1655 15.6292 27.9617 12.6573 28.8614C12.6573 28.8614 9.36663 29.8955 6.93462 33.2045C6.85236 33.3183 6.71867 33.3855 6.57471 33.3855H4.56946C4.29181 33.3855 4.081 33.1373 4.12213 32.8632ZM40.5199 43.1885C40.3503 43.8555 39.5739 44.1553 39.0031 43.7676C37.9543 43.0541 36.3706 41.808 34.936 39.9777C34.7253 39.7088 34.9155 39.3107 35.26 39.3107H40.9673C41.2397 39.3107 41.4351 39.564 41.3683 39.8277L40.5199 43.1885Z" fill="#0E8784"/>
</svg>

<svg width="49" height="44" fill="none" xmlns="http://www.w3.org/2000/svg"><path fill-rule="evenodd" clip-rule="evenodd" d="M4.122 32.863c.483-3.092-.869-6.261-2.324-9.177-.19-.38-.38-.756-.569-1.127-.398-.785-.786-1.547-1.128-2.28a1.113 1.113 0 0 1-.072-.72l.92-3.856c.088-.373.366-.672.73-.786 1.97-.62 8.258-2.854 8.824-6.137a.31.31 0 0 1 .092-.171l5.363-5.196a.319.319 0 0 1 .468.03c.504.637 1.908 2.053 3.995 1.355l-.648-.656a.317.317 0 0 1 .006-.455L22.23 1.36a.302.302 0 0 1 .216-.088h7.476a.32.32 0 0 1 .247.522l-2.401 2.932a.321.321 0 0 0 .072.47l2.531 1.662 2.353 1.544a1.483 1.483 0 0 0 2.19-.677c.397-.967.767-2.472.772-4.71 0-.037.005-.078.02-.114L36.746.2a.317.317 0 0 1 .57-.04c.51.889 1.42 2.776 1.42 4.979l.498-.362a.315.315 0 0 1 .438.062l1.09 1.427a.34.34 0 0 1 .061.222c-.072.77-.272 5.015 3.435 6.716a.312.312 0 0 1 .154.15l4.525 9.1c.02.047.03.093.03.145v3.831c0 .585-.246 1.138-.683 1.526-1.774 1.582-6.412 5.971-6.695 9.012a.314.314 0 0 1-.313.284H33.3a.302.302 0 0 1-.149-.036c-.514-.28-3.229-3.857-3.78-7.327a.315.315 0 0 0-.544-.16l-1.784 1.985a.863.863 0 0 1-.648.29.558.558 0 0 1-.55-.465c-.206-1.21-1.121-4.374-4.957-4.374-2.057 0-5.26.796-8.232 1.695 0 0-3.29 1.034-5.722 4.344a.442.442 0 0 1-.36.18H4.569a.454.454 0 0 1-.447-.522zM40.52 43.188a.99.99 0 0 1-1.517.58 18.333 18.333 0 0 1-4.067-3.79.413.413 0 0 1 .324-.667h5.707c.273 0 .468.253.401.517l-.848 3.36z" fill="#0E8784"/></svg>
